docs/svgs/star_outlined.svg

<?xml version="1.0" standalone="no"?><!DOCTYPE svg PUBLIC "-//W3C//DTD SVG 1.1//EN" "http://www.w3.org/Graphics/SVG/1.1/DTD/svg11.dtd"><svg t="1617535772039" class="icon" viewBox="0 0 1024 1024" version="1.1" xmlns="http://www.w3.org/2000/svg" p-id="16206" xmlns:xlink="http://www.w3.org/1999/xlink" width="200" height="200"><defs><style type="text/css"></style></defs><path d="M591.36 421.12l205.226667 16.213333L640 570.88l47.786667 199.68L512 663.466667l-176.213333 107.093333L384 570.88l-156.586667-133.546667 205.226667-16.213333L512 230.826667zM506.453333 85.333333a21.76 21.76 0 0 0-20.48 13.653334L381.44 350.293333l-272.64 21.76a20.906667 20.906667 0 0 0-18.773333 14.933334L85.333333 397.653333a20.906667 20.906667 0 0 0 6.4 23.04L298.666667 597.333333l-61.44 265.386667a21.76 21.76 0 0 0 8.106666 22.613333l10.666667 6.4a20.053333 20.053333 0 0 0 12.8 4.266667 20.48 20.48 0 0 0 11.093333-2.986667L512 750.933333l233.386667 142.08a20.48 20.48 0 0 0 11.093333 2.986667 20.053333 20.053333 0 0 0 12.8-4.266667l9.386667-6.4a21.76 21.76 0 0 0 8.106666-22.613333L725.333333 597.333333l207.36-177.066666a20.906667 20.906667 0 0 0 5.973334-22.613334l-3.413334-10.666666a20.906667 20.906667 0 0 0-18.773333-14.933334l-272.64-21.76-106.24-251.306666a20.906667 20.906667 0 0 0-20.053333-13.653334z" p-id="16207"></path></svg>

<svg viewBox="0 0 1024 1024" xmlns="http://www.w3.org/2000/svg"><defs><style/></defs><path d="M591.36 421.12l205.227 16.213L640 570.88l47.787 199.68L512 663.467 335.787 770.56 384 570.88 227.413 437.333 432.64 421.12 512 230.827zM506.453 85.333a21.76 21.76 0 00-20.48 13.654L381.44 350.293l-272.64 21.76a20.907 20.907 0 00-18.773 14.934l-4.694 10.666a20.907 20.907 0 006.4 23.04l206.934 176.64-61.44 265.387a21.76 21.76 0 008.106 22.613l10.667 6.4A20.053 20.053 0 00268.8 896a20.48 20.48 0 0011.093-2.987L512 750.933l233.387 142.08A20.48 20.48 0 00756.48 896a20.053 20.053 0 0012.8-4.267l9.387-6.4a21.76 21.76 0 008.106-22.613l-61.44-265.387 207.36-177.066a20.907 20.907 0 005.974-22.614l-3.414-10.666a20.907 20.907 0 00-18.773-14.934l-272.64-21.76L537.6 98.987a20.907 20.907 0 00-20.053-13.654z"/></svg>
